assets/images/dzen.svg

<svg width="52" height="52" viewBox="0 0 52 52" fill="none" xmlns="http://www.w3.org/2000/svg">
<path fill-rule="evenodd" clip-rule="evenodd" d="M29.3069 11.87C28.7387 8.90734 28.5366 5.16275 28.3647 0C33.255 0.00882261 37.3239 0.0713539 40.6651 0.502192C44.4602 0.991579 46.9528 1.91876 48.5469 3.45313C50.0727 5.03903 51.0055 7.61326 51.4975 11.4745C51.9269 14.8441 51.9907 18.8993 52 23.6322C46.8369 23.4534 43.0926 23.2517 40.1287 22.6854C36.8985 22.0681 34.738 21.0408 32.8148 19.1852C30.9578 17.2606 29.9262 15.099 29.3069 11.87ZM40.1287 29.3146C43.0926 28.7483 46.8369 28.5466 52 28.3678C51.9907 33.1007 51.9269 37.1559 51.4975 40.5255C51.0055 44.3867 50.0727 46.961 48.5468 48.5469C46.9528 50.0812 44.4602 51.0084 40.6651 51.4978C37.3239 51.9286 33.255 51.9912 28.3647 52C28.5366 46.8373 28.7387 43.0927 29.3069 40.13C29.9262 36.9011 30.9578 34.7394 32.8148 32.8148C34.738 30.9592 36.8985 29.9319 40.1287 29.3146ZM22.6931 11.87C22.0738 15.0989 21.0422 17.2606 19.1852 19.1852C17.262 21.0408 15.1015 22.0681 11.8713 22.6854C8.90742 23.2517 5.1631 23.4534 5.97919e-06 23.6322C0.00925684 18.8993 0.0731042 14.8441 0.502466 11.4745C0.99447 7.61326 1.92731 5.03902 3.45316 3.45312C5.04675 1.91922 7.54363 0.991738 11.3423 0.502213C14.685 0.0714443 18.7532 0.00884881 23.6353 5.45159e-06C23.4634 5.16275 23.2613 8.90734 22.6931 11.87ZM11.87 29.3069C15.0989 29.9262 17.2606 30.9578 19.1852 32.8148C21.0408 34.738 22.0681 36.8984 22.6853 40.1286C23.2517 43.0925 23.4533 46.8369 23.6322 52C18.7433 51.9912 14.6754 51.9286 11.3349 51.4978C7.53978 51.0084 5.0472 50.0813 3.45318 48.5469C1.92731 46.961 0.994472 44.3867 0.502466 40.5255C0.0730117 37.1551 0.00922923 33.0989 0 28.3647C5.16271 28.5366 8.90729 28.7387 11.87 29.3069Z" fill="#020202"/>
</svg>

<svg xmlns="http://www.w3.org/2000/svg" width="52" height="52" fill="none"><path fill="#020202" fill-rule="evenodd" d="M29.307 11.87c-.568-2.963-.77-6.707-.942-11.87 4.89.009 8.959.071 12.3.502 3.795.49 6.288 1.417 7.882 2.951 1.526 1.586 2.459 4.16 2.95 8.022.43 3.37.494 7.424.503 12.157-5.163-.179-8.907-.38-11.871-.947-3.23-.617-5.391-1.644-7.314-3.5-1.857-1.924-2.889-4.086-3.508-7.315Zm10.822 17.445c2.964-.567 6.708-.768 11.871-.947-.01 4.733-.073 8.788-.502 12.158-.492 3.86-1.425 6.435-2.951 8.02-1.594 1.535-4.087 2.462-7.882 2.952-3.341.43-7.41.493-12.3.502.172-5.163.374-8.907.942-11.87.62-3.229 1.65-5.39 3.508-7.315 1.923-1.856 4.084-2.883 7.314-3.5ZM22.693 11.87c-.62 3.229-1.65 5.39-3.508 7.315-1.923 1.856-4.083 2.883-7.314 3.5-2.964.567-6.708.768-11.871.947.01-4.733.073-8.788.502-12.158.492-3.86 1.425-6.435 2.951-8.02C5.047 1.918 7.543.991 11.343.501 14.684.072 18.752.01 23.634 0c-.172 5.163-.374 8.907-.942 11.87ZM11.87 29.307c3.229.62 5.39 1.65 7.315 3.508 1.856 1.923 2.883 4.083 3.5 7.314.567 2.964.768 6.708.947 11.871-4.889-.009-8.957-.071-12.297-.502-3.795-.49-6.288-1.417-7.882-2.951-1.526-1.586-2.459-4.16-2.95-8.021-.43-3.37-.494-7.427-.503-12.161 5.163.172 8.907.374 11.87.942Z" clip-rule="evenodd"/></svg>
